X:1
T:Lauds, LM
T:Lauds, LM
T:Proper Sarum Melody
T:Public Domain Courtesy of the Cyber Hymnal™
C:Proper Sarum Melody
Z:Public Domain
Z:Courtesy of the Cyber Hymnal™
%%score ( 1 2 ) 3
L:1/8
Q:1/4=112
M:4/4
K:F
V:1 treble 
V:2 treble 
V:3 bass 
V:1
 [CF]2 [DF]2 [EG]2 [FA]2 | [FB]2 [FA]2 [EG]2 [FA]2 | [FA]2 [CG]2 [Ec]2 [Fc]2 | %3
 [EG]2 [FA]2 [FB]2 [FA]2 | [EG]2 [FA]2 [FA]2 [CG]2 | [FA]2 [EG]2 [DF]2 [^CE]2 | %6
 [DF]2 [EG]2 [FA]2 [EG]2 | [DF]2 [^CE]2 F2 G2 | [^CE]2 D6 |] %9
V:2
 x8 | x8 | x8 | x8 | x8 | x8 | x8 | x4 D4 | x2 D6 |] %9
V:3
 [F,A,]2 [D,A,]2 [C,D]2 [F,C]2 | [D,B,]2 [F,C]2 [C,C]2 [F,C]2 | [F,C]2 [E,C]2 [C,C]2 [A,,C]2 | %3
 [C,C]2 [F,C]2 [D,B,]2 [C,D]2- | [C,D]2 [F,C]2 [D,F,]2 [E,C]2 | [F,C]2 [C,C]2 [D,A,]2 [A,,A,]2 | %6
 [D,A,]2 [C,C]2 [F,C]2 [C,C]2 | [D,A,]2 [A,,A,]2 [D,A,]2 [G,,B,]2 | [A,,A,]2 [D,F,]6 |] %9

